frontend/images/prima_pagina/utente_live.svg

<svg width="48" height="48" viewBox="0 0 48 48" fill="none" xmlns="http://www.w3.org/2000/svg">
<path d="M24 23.95C21.8333 23.95 20.0667 23.275 18.7 21.925C17.3333 20.575 16.65 18.8 16.65 16.6C16.65 14.4 17.325 12.6166 18.675 11.25C20.025 9.88328 21.8 9.19995 24 9.19995C26.2 9.19995 27.9833 9.88328 29.35 11.25C30.7167 12.6166 31.4 14.4 31.4 16.6C31.4 18.7666 30.7167 20.5333 29.35 21.9C27.9833 23.2666 26.2 23.95 24 23.95ZM8.25 39.65V35.0999C8.25 33.8666 8.55833 32.8083 9.175 31.9249C9.79167 31.0416 10.6 30.3666 11.6 29.9C13.8 28.9333 15.9083 28.2 17.925 27.7C19.9417 27.2 21.9667 26.95 24 26.95C26.0333 26.95 28.05 27.2 30.05 27.7C32.05 28.2 34.15 28.95 36.35 29.95C37.3833 30.3833 38.2167 31.0416 38.85 31.9249C39.4833 32.8083 39.8 33.8833 39.8 35.15V39.65H8.25ZM11.1 36.7999H36.9V35.15C36.9 34.5833 36.7417 34.0583 36.425 33.575C36.1083 33.0916 35.7167 32.7333 35.25 32.5C33.1167 31.4666 31.175 30.7583 29.425 30.375C27.675 29.9916 25.8667 29.7999 24 29.7999C22.1333 29.7999 20.3167 29.9916 18.55 30.375C16.7833 30.7583 14.85 31.4666 12.75 32.5C12.2833 32.7333 11.8917 33.0916 11.575 33.575C11.2583 34.0583 11.1 34.5833 11.1 35.15V36.7999ZM24 21.1C25.3 21.1 26.375 20.675 27.225 19.825C28.075 18.975 28.5 17.9 28.5 16.6C28.5 15.3 28.075 14.225 27.225 13.375C26.375 12.525 25.3 12.1 24 12.1C22.7 12.1 21.625 12.525 20.775 13.375C19.925 14.225 19.5 15.3 19.5 16.6C19.5 17.9 19.925 18.975 20.775 19.825C21.625 20.675 22.7 21.1 24 21.1Z" fill="#FDFCFA"/>
</svg>

<svg xmlns="http://www.w3.org/2000/svg" height="48" width="48"><path d="M24 23.95q-3.25 0-5.3-2.025T16.65 16.6q0-3.3 2.025-5.35T24 9.2q3.3 0 5.35 2.05t2.05 5.35q0 3.25-2.05 5.3T24 23.95ZM8.25 39.65V35.1q0-1.85.925-3.175Q10.1 30.6 11.6 29.9q3.3-1.45 6.325-2.2 3.025-.75 6.075-.75 3.05 0 6.05.75t6.3 2.25q1.55.65 2.5 1.975.95 1.325.95 3.225v4.5Zm2.85-2.85h25.8v-1.65q0-.85-.475-1.575T35.25 32.5q-3.2-1.55-5.825-2.125T24 29.8q-2.8 0-5.45.575-2.65.575-5.8 2.125-.7.35-1.175 1.075-.475.725-.475 1.575ZM24 21.1q1.95 0 3.225-1.275Q28.5 18.55 28.5 16.6q0-1.95-1.275-3.225Q25.95 12.1 24 12.1q-1.95 0-3.225 1.275Q19.5 14.65 19.5 16.6q0 1.95 1.275 3.225Q22.05 21.1 24 21.1Zm0-4.5Zm0 20.2Z"/></svg>
